archdroid-icon-theme/Archdroid-Yellow/status/scalable/appointment-missed.svg

<svg fill="#FFEB3B" height="48" viewBox="0 0 48 48" width="48" xmlns="http://www.w3.org/2000/svg"><g fill="#FFEB3B"><path d="m12 2v1.513672l12.486328 12.486328h13.513672v13.515625l4 4v-23.515625c0-2.21-1.79-4-4-4h-2v-4h-4v4h-16v-4zm-3.021484 4.150391c-1.705807.454182-2.958985 1.995835-2.958985 3.849609l-.019531 28c0 2.21 1.79 4 4 4h28c1.853978 0 3.397573-1.265933 3.851563-2.976562l-3.851563-3.851563v2.828125h-28v-22h8.828125zm5.021484 13.849609v10h10v-8.828125l-1.171875-1.171875z"/><path d="m-2 5.053824h4v58h-4z" stroke-width="4" transform="matrix(.70710678 -.70710678 .70710678 .70710678 0 0)"/></g></svg>

<svg fill="#FFEB3B" height="48" version="1.1" viewBox="0 0 48 48" width="48" xmlns="http://www.w3.org/2000/svg"><path d="M12 2L12 3.513672 24.486328 16 38 16 38 29.515625 42 33.515625 42 10C42 7.79 40.21 6 38 6L36 6 36 2 32 2 32 6 16 6 16 2 12 2zM8.978516 6.150391C7.272709 6.604573 6.019531 8.146226 6.019531 10L6 38C6 40.21 7.79 42 10 42L38 42C39.853978 42 41.397573 40.734067 41.851563 39.023438L38 35.171875 38 38 10 38 10 16 18.828125 16 8.978516 6.150391zM14 20L14 30 24 30 24 21.171875 22.828125 20 14 20z"/><path d="M-2 5.053824H2V63.053824H-2Z" fill="#FFEB3B" stroke-width="4" transform="matrix(.70710678 -.70710678 .70710678 .70710678 0 0)"/></svg>
